dist/svgs/crypto-icons/icons/plu.svg

<?xml version="1.0" encoding="UTF-8" standalone="yes"?>
<svg xmlns="http://www.w3.org/2000/svg" xmlns:xlink="http://www.w3.org/1999/xlink" width="410.66666666666663px" height="510.66666666666663px" viewBox="0 0 308 383" version="1.1">
  <g id="surface1">
    <path style=" stroke:none;fill-rule:evenodd;fill:rgb(0%,0%,0%);fill-opacity:1;" d="M 194.433594 257.972656 C 205.3125 271.296875 216.570312 285.074219 204.292969 300.550781 C 200.339844 305.53125 195.824219 308.699219 191.832031 311.496094 C 183.214844 317.578125 177.5 321.582031 180.046875 341.347656 L 169.585938 342.714844 C 166.203125 316.554688 176.164062 309.5625 185.800781 302.785156 C 189.523438 300.160156 193.050781 297.691406 196.039062 293.90625 C 202.410156 285.898438 198.640625 279.875 186.28125 264.722656 C 183.824219 261.75 181.421875 258.734375 179.074219 255.667969 C 174.832031 250.082031 173.28125 243.882812 174.613281 237.777344 C 176.007812 231.40625 180.191406 226.160156 184.398438 222.285156 C 164.964844 209.519531 164.617188 188.25 164.617188 187.953125 L 169.886719 187.953125 L 175.175781 187.925781 C 175.1875 188.910156 175.683594 206.199219 193.785156 215.421875 L 195.09375 216.074219 C 201.207031 218.929688 209.242188 220.851562 219.707031 221.066406 C 263.328125 220.148438 264.222656 189.253906 264.234375 187.925781 L 274.792969 187.953125 C 274.792969 188.058594 274.742188 190.964844 273.742188 195.226562 C 278.785156 195.039062 288.183594 193.328125 291.601562 191.417969 C 289.652344 184.398438 277.171875 161.265625 265.707031 142.132812 L 268.882812 134.242188 L 270.097656 133.90625 C 268.28125 125.636719 264.707031 109.042969 262.925781 98.089844 C 222.601562 91.914062 193.527344 96.621094 176.496094 112.121094 C 160.050781 127.117188 161.039062 146.972656 161.078125 147.820312 L 155.21875 148.199219 L 150.546875 148.585938 C 150.316406 145.859375 148.425781 142.980469 146.132812 141.902344 C 144.046875 140.921875 141.644531 141.390625 138.984375 143.289062 C 134.863281 146.21875 133.394531 149.925781 134.371094 154.988281 C 136.054688 163.84375 144.847656 173.570312 151.617188 177.734375 C 152.644531 177.097656 153.390625 176.695312 153.699219 176.523438 L 155.230469 179.453125 C 155.445312 179.523438 155.695312 180.324219 155.695312 180.324219 L 156.167969 181.230469 L 158.648438 185.921875 C 156.878906 186.917969 155.179688 188.039062 153.574219 189.285156 C 153.574219 189.285156 153.046875 189.886719 152.871094 189.835938 C 149.105469 192.835938 145.074219 197.066406 144.097656 201.597656 C 143.445312 204.636719 144.273438 207.621094 146.636719 210.742188 C 148.960938 213.796875 151.320312 216.695312 153.605469 219.492188 C 164.484375 232.828125 175.734375 246.613281 163.464844 262.089844 C 159.515625 267.0625 154.992188 270.234375 151.011719 273.03125 C 142.378906 279.109375 136.675781 283.113281 139.226562 302.859375 L 128.765625 304.234375 C 125.386719 278.085938 135.34375 271.082031 144.96875 264.316406 C 148.6875 261.683594 152.214844 259.210938 155.21875 255.445312 C 161.570312 247.417969 157.824219 241.40625 145.457031 226.253906 C 143.117188 223.382812 140.6875 220.410156 138.25 217.195312 C 133.996094 211.601562 132.464844 205.402344 133.78125 199.300781 C 135.089844 193.304688 138.894531 188.300781 142.832031 184.507812 C 134.277344 178.066406 125.960938 167.261719 124.003906 157 C 122.246094 147.890625 125.414062 139.929688 132.898438 134.589844 C 138.710938 130.464844 144.992188 129.640625 150.589844 132.261719 C 151.167969 132.53125 151.722656 132.867188 152.257812 133.203125 C 154.941406 122.132812 160.855469 112.105469 169.25 104.390625 C 188.648438 86.59375 220.535156 80.929688 263.996094 87.492188 C 273.726562 75.039062 277.933594 56.554688 261.21875 40.90625 C 245.878906 26.570312 219.027344 22.335938 200.617188 40.109375 L 191.808594 37.371094 C 188.699219 22.550781 171.398438 15.1875 156.242188 13.25 C 133.328125 10.304688 103.402344 17.773438 91.882812 41.148438 C 76.570312 72.148438 96.257812 87.804688 97.101562 88.460938 L 93.644531 98.019531 C 70.980469 96.765625 55.746094 100.515625 48.351562 109.148438 C 38.796875 120.308594 42.679688 139.441406 45.804688 154.820312 C 48.421875 167.691406 50.488281 177.855469 45.375 183.890625 C 39.558594 190.761719 32.589844 193.246094 26.179688 193.246094 C 22.164062 193.238281 18.203125 192.296875 14.617188 190.492188 C 5.601562 185.929688 0.617188 177.0625 2.464844 168.9375 L 12.753906 171.335938 C 12.011719 174.550781 14.855469 178.703125 19.378906 180.984375 C 21.761719 182.210938 30.136719 185.503906 37.34375 176.992188 C 39.109375 174.910156 36.917969 164.097656 35.464844 156.949219 C 31.875 139.296875 27.410156 117.324219 40.359375 102.203125 C 48.601562 92.585938 62.402344 87.625 82.359375 87.171875 C 76.175781 77.3125 70.6875 60.1875 82.421875 36.414062 C 96.253906 8.410156 131.0625 -0.707031 157.585938 2.699219 C 177.664062 5.273438 192.90625 14.445312 199.410156 27.351562 C 221.792969 11.273438 251.09375 16.921875 268.40625 33.117188 C 282.140625 45.960938 291.257812 69.257812 272.894531 93.339844 C 274.777344 106.746094 281.460938 136.253906 281.53125 136.5625 L 278.113281 142.265625 C 305.449219 188.609375 302.914062 193.570312 301.671875 196.019531 C 299.097656 201.046875 289.640625 203.9375 281.222656 205.109375 C 291.164062 211.746094 300.816406 223.261719 300.136719 240.710938 C 299.601562 254.398438 289.28125 265.460938 279.316406 276.148438 C 265.9375 290.480469 258.117188 299.84375 265.472656 311.09375 L 256.664062 316.945312 C 244.34375 298.109375 258.835938 282.578125 271.621094 268.867188 C 280.273438 259.597656 289.21875 250.011719 289.589844 240.292969 C 290.351562 220.851562 273.90625 212.449219 267.484375 209.90625 C 260.625 220.328125 247.339844 230.695312 221.648438 231.644531 L 221.648438 231.742188 C 220.980469 231.742188 220.371094 231.703125 219.714844 231.6875 C 219.058594 231.703125 218.441406 231.742188 217.777344 231.742188 L 217.777344 231.644531 C 208.621094 231.316406 201.042969 229.777344 194.777344 227.46875 C 190.746094 230.503906 185.992188 235.105469 184.929688 240.058594 C 184.269531 243.101562 185.101562 246.101562 187.472656 249.207031 C 189.785156 252.273438 192.164062 255.175781 194.445312 257.96875 Z M 118.480469 70.882812 L 126.609375 77.671875 C 121.632812 83.71875 124.484375 88.929688 125.941406 90.90625 C 128.320312 94.113281 132.777344 96.453125 136.699219 94.757812 C 143.375 91.878906 144.371094 90.375 149.984375 82.09375 C 154.402344 75.480469 159.050781 69.007812 163.921875 62.707031 C 170.792969 53.734375 178.710938 49.019531 187.410156 48.664062 C 201.332031 48.140625 211.613281 59.300781 212.039062 59.789062 L 204.226562 66.957031 C 204.164062 66.875 196.730469 58.914062 187.769531 59.300781 C 182.351562 59.535156 177.136719 62.863281 172.257812 69.199219 C 167.542969 75.347656 163.027344 81.644531 158.714844 88.078125 C 152.816406 96.800781 150.367188 100.421875 140.878906 104.53125 C 138.667969 105.480469 136.296875 105.96875 133.898438 105.96875 C 127.785156 105.96875 121.632812 102.851562 117.476562 97.269531 C 111.511719 89.234375 111.898438 78.867188 118.480469 70.878906 Z M 233.515625 293.144531 C 244.382812 306.46875 255.640625 320.261719 243.355469 335.726562 C 239.421875 340.703125 234.90625 343.875 230.917969 346.683594 C 222.277344 352.75 216.582031 356.753906 219.128906 376.519531 L 208.648438 377.894531 C 205.285156 351.726562 215.246094 344.734375 224.867188 337.957031 C 228.589844 335.339844 232.117188 332.863281 235.121094 329.085938 C 241.472656 321.074219 237.710938 315.050781 225.363281 299.894531 C 222.902344 296.921875 220.5 293.902344 218.15625 290.835938 C 213.898438 285.242188 212.363281 279.054688 213.683594 272.953125 C 216.589844 259.585938 231.867188 251.101562 233.597656 250.179688 L 238.550781 259.582031 C 235.039062 261.472656 225.5625 267.964844 224.003906 275.238281 C 223.347656 278.277344 224.175781 281.261719 226.535156 284.382812 C 228.863281 287.449219 231.222656 290.347656 233.515625 293.144531 Z M 124.652344 124.160156 C 93.511719 122.988281 77.238281 129.738281 76.261719 144.234375 C 75.859375 150.015625 76.34375 156.828125 76.867188 164.050781 C 78.132812 181.664062 79.574219 201.644531 67.738281 213.527344 C 61.261719 220.039062 51.847656 223.238281 39.074219 223.238281 C 37.007812 223.238281 34.832031 223.15625 32.589844 222.992188 L 33.355469 212.390625 C 46.253906 213.347656 55.042969 211.265625 60.261719 206.007812 C 68.691406 197.546875 67.488281 180.914062 66.324219 164.824219 C 65.777344 157.226562 65.273438 150.050781 65.714844 143.503906 C 66.714844 128.855469 77.820312 111.761719 125.03125 113.53125 L 124.648438 124.167969 Z M 253.101562 142.25 C 252.9375 141.996094 249.121094 136.183594 238.570312 136.183594 C 228.710938 136.183594 214.828125 145.863281 210.304688 149.601562 L 204 141.84375 C 204.78125 141.199219 223.171875 126.167969 238.578125 126.167969 C 255.023438 126.167969 261.359375 136.625 261.613281 137.074219 L 257.332031 139.625 Z M 235.691406 152 C 235.691406 148.546875 238.839844 145.75 242.722656 145.75 C 246.609375 145.75 249.769531 148.546875 249.769531 152.003906 C 249.769531 155.457031 246.609375 158.253906 242.722656 158.253906 C 238.839844 158.253906 235.691406 155.457031 235.691406 152.003906 Z M 235.691406 152 "/>
  </g>
</svg>

<svg xmlns="http://www.w3.org/2000/svg" viewBox="0 0 308 383"><path fill-rule="evenodd" d="M194.434 257.973c10.879 13.324 22.136 27.101 9.859 42.578-3.953 4.98-8.469 8.148-12.461 10.945-8.617 6.082-14.332 10.086-11.785 29.852l-10.461 1.367c-3.383-26.16 6.578-33.152 16.215-39.93 3.722-2.625 7.25-5.094 10.238-8.879 6.371-8.008 2.602-14.031-9.758-29.183a310.133 310.133 0 01-7.207-9.055c-4.242-5.586-5.793-11.785-4.46-17.89 1.394-6.372 5.577-11.618 9.784-15.493-19.433-12.765-19.78-34.035-19.78-34.332h5.269l5.289-.027c.012.984.508 18.273 18.61 27.496l1.308.652c6.113 2.856 14.148 4.778 24.613 4.992 43.621-.918 44.516-31.812 44.527-33.14l10.559.027c0 .106-.05 3.012-1.05 7.274 5.042-.188 14.44-1.899 17.859-3.809-1.95-7.02-14.43-30.152-25.895-49.285l3.176-7.89 1.215-.337c-1.817-8.27-5.391-24.863-7.172-35.816-40.324-6.176-69.399-1.469-86.43 14.031-16.445 14.996-15.457 34.852-15.418 35.7l-5.86.378-4.671.387c-.23-2.727-2.121-5.606-4.414-6.684-2.086-.98-4.488-.511-7.149 1.387-4.12 2.93-5.59 6.637-4.613 11.7 1.684 8.855 10.477 18.581 17.246 22.745 1.028-.636 1.774-1.039 2.082-1.21l1.531 2.93c.215.07.465.87.465.87l.473.906 2.48 4.692a41.368 41.368 0 00-5.074 3.363s-.527.602-.703.55c-3.766 3-7.797 7.231-8.773 11.763-.653 3.039.175 6.023 2.539 9.144 2.324 3.055 4.683 5.953 6.968 8.75 10.88 13.336 22.13 27.121 9.86 42.598-3.95 4.973-8.473 8.144-12.453 10.941-8.633 6.078-14.336 10.082-11.785 29.828l-10.461 1.375c-3.38-26.148 6.578-33.152 16.203-39.918 3.719-2.632 7.246-5.105 10.25-8.87 6.351-8.028 2.605-14.04-9.762-29.192-2.34-2.871-4.77-5.844-7.207-9.059-4.254-5.593-5.785-11.793-4.469-17.894 1.309-5.996 5.114-11 9.051-14.793-8.555-6.442-16.871-17.246-18.828-27.508-1.758-9.11 1.41-17.07 8.894-22.41 5.813-4.125 12.094-4.95 17.692-2.328.578.27 1.133.605 1.668.941a57.55 57.55 0 0116.992-28.812c19.398-17.797 51.285-23.461 94.746-16.899 9.73-12.453 13.938-30.937-2.777-46.586-15.34-14.336-42.192-18.57-60.602-.797l-8.808-2.738c-3.11-14.82-20.41-22.184-35.567-24.121-22.914-2.945-52.84 4.523-64.36 27.898-15.312 31 4.376 46.657 5.22 47.313l-3.457 9.559c-22.665-1.254-37.899 2.496-45.293 11.128-9.555 11.16-5.672 30.293-2.547 45.672 2.617 12.871 4.683 23.035-.43 29.07-5.816 6.872-12.785 9.356-19.195 9.356a25.835 25.835 0 01-11.563-2.754c-9.015-4.562-14-13.43-12.152-21.554l10.289 2.398c-.742 3.215 2.101 7.367 6.625 9.648 2.383 1.227 10.758 4.52 17.965-3.992 1.765-2.082-.426-12.894-1.88-20.043-3.589-17.652-8.054-39.625 4.895-54.746 8.243-9.617 22.043-14.578 42-15.031-6.183-9.86-11.671-26.984.063-50.758C96.254 8.41 131.062-.707 157.586 2.7c20.078 2.574 35.32 11.746 41.824 24.653 22.383-16.079 51.684-10.43 68.996 5.765 13.735 12.844 22.852 36.14 4.489 60.223 1.882 13.406 8.566 42.914 8.636 43.222l-3.418 5.704c27.336 46.343 24.801 51.304 23.559 53.754-2.574 5.027-12.031 7.917-20.45 9.09 9.942 6.636 19.594 18.152 18.915 35.6-.535 13.688-10.856 24.75-20.82 35.438-13.38 14.332-21.2 23.696-13.844 34.946l-8.809 5.851c-12.32-18.836 2.172-34.367 14.957-48.078 8.652-9.27 17.598-18.855 17.969-28.574.762-19.441-15.684-27.844-22.106-30.387-6.859 10.422-20.144 20.79-45.836 21.739v.097c-.668 0-1.277-.039-1.933-.054-.656.015-1.274.054-1.938.054v-.097c-9.156-.329-16.734-1.868-23-4.176-4.03 3.035-8.785 7.636-9.847 12.59-.66 3.043.172 6.043 2.543 9.148 2.312 3.066 4.691 5.969 6.972 8.762zM118.48 70.883l8.13 6.789c-4.977 6.047-2.126 11.258-.669 13.234 2.38 3.207 6.836 5.547 10.758 3.852 6.676-2.88 7.672-4.383 13.285-12.664a345.41 345.41 0 0113.938-19.387c6.871-8.973 14.789-13.687 23.488-14.043 13.922-.523 24.203 10.637 24.63 11.125l-7.813 7.168c-.063-.082-7.497-8.043-16.457-7.656-5.418.234-10.633 3.562-15.512 9.898a364.983 364.983 0 00-13.543 18.88c-5.899 8.722-8.348 12.343-17.836 16.452a17.68 17.68 0 01-6.98 1.438c-6.114 0-12.266-3.117-16.422-8.7-5.965-8.035-5.579-18.402 1.003-26.39zm115.036 222.262c10.867 13.324 22.125 27.117 9.84 42.582-3.934 4.976-8.45 8.148-12.438 10.957-8.64 6.066-14.336 10.07-11.79 29.836l-10.48 1.375c-3.363-26.168 6.598-33.16 16.22-39.938 3.722-2.617 7.25-5.094 10.253-8.871 6.352-8.012 2.59-14.035-9.758-29.191a297.661 297.661 0 01-7.207-9.06c-4.258-5.593-5.793-11.78-4.472-17.882 2.906-13.367 18.183-21.851 19.914-22.773l4.953 9.402c-3.512 1.89-12.988 8.383-14.547 15.656-.656 3.04.172 6.024 2.531 9.145 2.328 3.066 4.688 5.965 6.98 8.762zM124.652 124.16c-31.14-1.172-47.414 5.578-48.39 20.074-.403 5.782.082 12.594.605 19.817 1.266 17.613 2.707 37.594-9.129 49.476-6.476 6.512-15.89 9.711-28.664 9.711-2.066 0-4.242-.082-6.484-.246l.765-10.601c12.899.957 21.688-1.125 26.907-6.383 8.43-8.461 7.226-25.094 6.062-41.184-.547-7.597-1.05-14.773-.61-21.32 1-14.649 12.106-31.742 59.317-29.973l-.383 10.637zm128.45 18.09c-.165-.254-3.98-6.066-14.532-6.066-9.86 0-23.742 9.68-28.265 13.418L204 141.844c.781-.645 19.172-15.676 34.578-15.676 16.445 0 22.781 10.457 23.035 10.906l-4.281 2.551zm-17.41 9.75c0-3.453 3.148-6.25 7.03-6.25 3.887 0 7.048 2.797 7.048 6.254 0 3.453-3.16 6.25-7.047 6.25-3.883 0-7.032-2.797-7.032-6.25zm0 0"/></svg>
